X: 17
T: Trip To Sligo, The
Z: Aaron Bergen
S: https://thesession.org/tunes/397#setting48812
R: jig
M: 6/8
L: 1/8
K: Emin
|:"Em"E2e BGE|"D"D2d AFD|"Em"E2e BGE|GFE e2f|
"G"gfe dcB|ABG FED|EFG ABc|"Em"BGF E3:|
|:"Em"eBe gfe|"D"dAd fed|"Em"eBe gfe|f/g/af gfe|
"G"f/g/af gfe|dcB AFA|EFG ABc|"Em"BGF E3:|

